apps/web/src/images/integrations/logo-panther-round-color.svg

<svg width="600" height="600" fill="none" xmlns="http://www.w3.org/2000/svg"><rect width="600" height="600" rx="300" fill="#192FFF"/><path d="m445.835 230.057-23.98 44.93a4.887 4.887 0 0 0-.543 3.076l8.728 66.101c.415 3.108-.927 6.215-3.485 7.996l-49.686 35.154a5.108 5.108 0 0 0-1.726 2.137l-24.395 57.199c-1.376 3.205-4.285 5.471-7.706 5.989l-42.076 6.215a12.657 12.657 0 0 1-3.837 0l-42.076-6.215c-3.421-.518-6.331-2.784-7.706-5.989l-24.395-57.199c-.351-.874-.959-1.586-1.726-2.137l-49.686-35.122a8.427 8.427 0 0 1-3.485-7.996l8.729-66.101a5.357 5.357 0 0 0-.544-3.075l-24.043-44.963a10.537 10.537 0 0 1-1.183-5.406l1.151-19.682c.223-3.625 2.302-6.83 5.531-8.448l13.684-6.863a12.336 12.336 0 0 1 12.15.615l30.726 19.455a4.928 4.928 0 0 0 4.092.55l76.799-23.695a13.132 13.132 0 0 1 7.737 0l76.799 23.695a4.93 4.93 0 0 0 4.093-.55l30.725-19.455a12.336 12.336 0 0 1 12.15-.615l13.652 6.863a10.15 10.15 0 0 1 5.532 8.448l1.151 19.682c.095 1.877-.288 3.755-1.184 5.406h.033Z" fill="#F7F9FC"/></svg>

<svg width="600" height="600" viewBox="0 0 600 600" fill="none" xmlns="http://www.w3.org/2000/svg">
<rect width="600" height="600" rx="300" fill="#192FFF"/>
<path d="M445.835 230.057L421.855 274.987C421.344 275.926 421.152 276.994 421.312 278.063L430.04 344.164C430.455 347.272 429.113 350.379 426.555 352.16L376.869 387.314C376.102 387.865 375.526 388.577 375.143 389.451L350.748 446.65C349.372 449.855 346.463 452.121 343.042 452.639L300.966 458.854C299.687 459.049 298.408 459.049 297.129 458.854L255.053 452.639C251.632 452.121 248.722 449.855 247.347 446.65L222.952 389.451C222.601 388.577 221.993 387.865 221.226 387.314L171.54 352.192C168.982 350.379 167.639 347.304 168.055 344.196L176.784 278.095C176.911 277.027 176.72 275.959 176.24 275.02L152.197 230.057C151.333 228.406 150.918 226.528 151.014 224.651L152.165 204.969C152.388 201.344 154.467 198.139 157.696 196.521L171.38 189.658C175.249 187.716 179.853 187.942 183.53 190.273L214.256 209.728C215.471 210.505 216.973 210.699 218.348 210.278L295.147 186.583C297.673 185.806 300.358 185.806 302.884 186.583L379.683 210.278C381.058 210.699 382.56 210.505 383.776 209.728L414.501 190.273C418.178 187.942 422.783 187.716 426.651 189.658L440.303 196.521C443.5 198.139 445.611 201.344 445.835 204.969L446.986 224.651C447.081 226.528 446.698 228.406 445.802 230.057H445.835Z" fill="#F7F9FC"/>
</svg>
